icons/sound-module.svg

<svg width="24" height="24" viewBox="0 0 24 24" fill="none" xmlns="http://www.w3.org/2000/svg">
<path fill-rule="evenodd" clip-rule="evenodd" d="M4 3C4.55228 3 5 3.44772 5 4V13C5 13.5523 4.55228 14 4 14C3.44772 14 3 13.5523 3 13V4C3 3.44772 3.44772 3 4 3ZM12 3C12.5523 3 13 3.44772 13 4V6H14C14.5523 6 15 6.44772 15 7C15 7.55228 14.5523 8 14 8H10C9.44772 8 9 7.55228 9 7C9 6.44772 9.44772 6 10 6H11V4C11 3.44772 11.4477 3 12 3ZM20 3C20.5523 3 21 3.44772 21 4V13C21 13.5523 20.5523 14 20 14C19.4477 14 19 13.5523 19 13V4C19 3.44772 19.4477 3 20 3ZM12 10C12.5523 10 13 10.4477 13 11V20C13 20.5523 12.5523 21 12 21C11.4477 21 11 20.5523 11 20V11C11 10.4477 11.4477 10 12 10ZM1 17C1 16.4477 1.44772 16 2 16H6C6.55228 16 7 16.4477 7 17C7 17.5523 6.55228 18 6 18H5V20C5 20.5523 4.55228 21 4 21C3.44772 21 3 20.5523 3 20V18H2C1.44772 18 1 17.5523 1 17ZM17 17C17 16.4477 17.4477 16 18 16H22C22.5523 16 23 16.4477 23 17C23 17.5523 22.5523 18 22 18H21V20C21 20.5523 20.5523 21 20 21C19.4477 21 19 20.5523 19 20V18H18C17.4477 18 17 17.5523 17 17Z" fill="black"/>
</svg>

<svg
  width="24"
  height="24"
  viewBox="0 0 24 24"
  xmlns="http://www.w3.org/2000/svg"
>
  <path
    fill-rule="evenodd"
    clip-rule="evenodd"
    d="M4 3a1 1 0 0 1 1 1v9a1 1 0 1 1-2 0V4a1 1 0 0 1 1-1zm8 0a1 1 0 0 1 1 1v2h1a1 1 0 1 1 0 2h-4a1 1 0 0 1 0-2h1V4a1 1 0 0 1 1-1zm8 0a1 1 0 0 1 1 1v9a1 1 0 1 1-2 0V4a1 1 0 0 1 1-1zm-8 7a1 1 0 0 1 1 1v9a1 1 0 1 1-2 0v-9a1 1 0 0 1 1-1zM1 17a1 1 0 0 1 1-1h4a1 1 0 1 1 0 2H5v2a1 1 0 1 1-2 0v-2H2a1 1 0 0 1-1-1zm16 0a1 1 0 0 1 1-1h4a1 1 0 1 1 0 2h-1v2a1 1 0 1 1-2 0v-2h-1a1 1 0 0 1-1-1z"
  />
</svg>
